X: 10
T:British Grenadiers
M:2/4
L:1/8
R:March
N:http://www.lesession.co.uk
Z:Steve Mansfield 1998-2001
K:G
D | GD GA | Bc/B/ AB/c/ | dG B/A/G/F/ | G3 :| B/c/ |
d>e dc | B/A/B/c/ dd | ee d/c/B/A/ | G2 FD |
GF/G/ AG/A/ | BA/B/ cB/c/ | dG B/A/G/F/ | G3 ||
<end>
<start>
